img/logo.svg

<svg width="262" height="19" viewBox="0 0 262 19" fill="none" xmlns="http://www.w3.org/2000/svg">
<path d="M1.28 18C1.12 18 0.976 17.944 0.848 17.832C0.736 17.704 0.68 17.56 0.68 17.4V1.8C0.68 1.624 0.736 1.48 0.848 1.368C0.976 1.256 1.12 1.2 1.28 1.2H3.824C4.224 1.2 4.496 1.352 4.64 1.656L10.496 10.872V1.8C10.496 1.624 10.552 1.48 10.664 1.368C10.792 1.256 10.936 1.2 11.096 1.2H13.976C14.152 1.2 14.296 1.256 14.408 1.368C14.52 1.48 14.576 1.624 14.576 1.8V17.376C14.576 17.552 14.52 17.704 14.408 17.832C14.296 17.944 14.152 18 13.976 18H11.408C11.056 18 10.792 17.848 10.616 17.544L4.76 8.664V17.4C4.76 17.56 4.704 17.704 4.592 17.832C4.48 17.944 4.336 18 4.16 18H1.28ZM16.97 18C16.842 18 16.722 17.952 16.61 17.856C16.514 17.744 16.466 17.624 16.466 17.496C16.466 17.4 16.474 17.328 16.49 17.28L22.13 1.872C22.178 1.68 22.282 1.52 22.442 1.392C22.602 1.264 22.81 1.2 23.066 1.2H26.618C26.874 1.2 27.082 1.264 27.242 1.392C27.402 1.52 27.506 1.68 27.554 1.872L33.17 17.28L33.218 17.496C33.218 17.624 33.162 17.744 33.05 17.856C32.954 17.952 32.834 18 32.69 18H29.738C29.354 18 29.098 17.832 28.97 17.496L28.034 15.048H21.626L20.714 17.496C20.586 17.832 20.322 18 19.922 18H16.97ZM27.074 11.592L24.842 5.256L22.61 11.592H27.074ZM35.7097 18C35.5497 18 35.4057 17.944 35.2777 17.832C35.1657 17.704 35.1097 17.56 35.1097 17.4V1.8C35.1097 1.624 35.1657 1.48 35.2777 1.368C35.4057 1.256 35.5497 1.2 35.7097 1.2H38.3017C38.6857 1.2 38.9657 1.376 39.1417 1.728L43.3657 9.288L47.5897 1.728C47.7657 1.376 48.0457 1.2 48.4297 1.2H50.9977C51.1737 1.2 51.3177 1.256 51.4297 1.368C51.5577 1.48 51.6217 1.624 51.6217 1.8V17.4C51.6217 17.576 51.5577 17.72 51.4297 17.832C51.3177 17.944 51.1737 18 50.9977 18H48.1417C47.9657 18 47.8137 17.944 47.6857 17.832C47.5737 17.72 47.5177 17.576 47.5177 17.4V8.4L44.8297 13.416C44.6217 13.784 44.3417 13.968 43.9897 13.968H42.7417C42.5337 13.968 42.3657 13.92 42.2377 13.824C42.1097 13.728 41.9977 13.592 41.9017 13.416L39.1897 8.4V17.4C39.1897 17.56 39.1337 17.704 39.0217 17.832C38.9097 17.944 38.7657 18 38.5897 18H35.7097ZM54.0247 18C53.8967 18 53.7767 17.952 53.6647 17.856C53.5687 17.744 53.5207 17.624 53.5207 17.496C53.5207 17.4 53.5287 17.328 53.5447 17.28L59.1847 1.872C59.2327 1.68 59.3367 1.52 59.4967 1.392C59.6567 1.264 59.8647 1.2 60.1207 1.2H63.6727C63.9287 1.2 64.1367 1.264 64.2967 1.392C64.4567 1.52 64.5607 1.68 64.6087 1.872L70.2247 17.28L70.2727 17.496C70.2727 17.624 70.2167 17.744 70.1047 17.856C70.0087 17.952 69.8887 18 69.7447 18H66.7927C66.4087 18 66.1527 17.832 66.0247 17.496L65.0887 15.048H58.6807L57.7687 17.496C57.6407 17.832 57.3767 18 56.9767 18H54.0247ZM64.1287 11.592L61.8967 5.256L59.6647 11.592H64.1287ZM72.7644 18C72.6044 18 72.4604 17.944 72.3324 17.832C72.2204 17.704 72.1644 17.56 72.1644 17.4V1.8C72.1644 1.624 72.2204 1.48 72.3324 1.368C72.4604 1.256 72.6044 1.2 72.7644 1.2H75.3084C75.7084 1.2 75.9804 1.352 76.1244 1.656L81.9804 10.872V1.8C81.9804 1.624 82.0364 1.48 82.1484 1.368C82.2764 1.256 82.4204 1.2 82.5804 1.2H85.4604C85.6364 1.2 85.7804 1.256 85.8924 1.368C86.0044 1.48 86.0604 1.624 86.0604 1.8V17.376C86.0604 17.552 86.0044 17.704 85.8924 17.832C85.7804 17.944 85.6364 18 85.4604 18H82.8924C82.5404 18 82.2764 17.848 82.1004 17.544L76.2444 8.664V17.4C76.2444 17.56 76.1884 17.704 76.0764 17.832C75.9644 17.944 75.8204 18 75.6444 18H72.7644ZM96.3504 18.24C94.0464 18.24 92.2464 17.68 90.9504 16.56C89.6544 15.424 88.9664 13.816 88.8864 11.736C88.8704 11.272 88.8624 10.536 88.8624 9.528C88.8624 8.52 88.8704 7.784 88.8864 7.32C88.9664 5.288 89.6624 3.72 90.9744 2.616C92.3024 1.512 94.0944 0.959999 96.3504 0.959999C97.8704 0.959999 99.1904 1.208 100.31 1.704C101.446 2.2 102.31 2.832 102.902 3.6C103.51 4.368 103.83 5.16 103.862 5.976C103.862 6.12 103.806 6.24 103.694 6.336C103.598 6.432 103.478 6.48 103.334 6.48H99.8304C99.6704 6.48 99.5424 6.456 99.4464 6.408C99.3504 6.36 99.2704 6.272 99.2064 6.144C98.9984 5.68 98.6704 5.28 98.2224 4.944C97.7744 4.592 97.1504 4.416 96.3504 4.416C94.4464 4.416 93.4464 5.424 93.3504 7.44C93.3344 7.888 93.3264 8.584 93.3264 9.528C93.3264 10.456 93.3344 11.152 93.3504 11.616C93.4464 13.728 94.4704 14.784 96.4224 14.784C97.3664 14.784 98.1184 14.544 98.6784 14.064C99.2544 13.568 99.5424 12.816 99.5424 11.808V11.352H97.2864C97.1104 11.352 96.9664 11.296 96.8544 11.184C96.7424 11.056 96.6864 10.904 96.6864 10.728V8.952C96.6864 8.776 96.7424 8.632 96.8544 8.52C96.9664 8.392 97.1104 8.328 97.2864 8.328H103.334C103.51 8.328 103.654 8.392 103.766 8.52C103.878 8.632 103.934 8.776 103.934 8.952V11.688C103.934 13.048 103.622 14.224 102.998 15.216C102.374 16.192 101.486 16.944 100.334 17.472C99.1984 17.984 97.8704 18.24 96.3504 18.24ZM105.353 18C105.225 18 105.105 17.952 104.993 17.856C104.897 17.744 104.849 17.624 104.849 17.496C104.849 17.4 104.857 17.328 104.873 17.28L110.513 1.872C110.561 1.68 110.665 1.52 110.825 1.392C110.985 1.264 111.193 1.2 111.449 1.2H115.001C115.257 1.2 115.465 1.264 115.625 1.392C115.785 1.52 115.889 1.68 115.937 1.872L121.553 17.28L121.601 17.496C121.601 17.624 121.545 17.744 121.433 17.856C121.337 17.952 121.217 18 121.073 18H118.121C117.737 18 117.481 17.832 117.353 17.496L116.417 15.048H110.009L109.097 17.496C108.969 17.832 108.705 18 108.305 18H105.353ZM115.457 11.592L113.225 5.256L110.993 11.592H115.457ZM124.093 18C123.933 18 123.789 17.944 123.661 17.832C123.549 17.704 123.493 17.56 123.493 17.4V1.8C123.493 1.624 123.549 1.48 123.661 1.368C123.789 1.256 123.933 1.2 124.093 1.2H126.637C127.037 1.2 127.309 1.352 127.453 1.656L133.309 10.872V1.8C133.309 1.624 133.365 1.48 133.477 1.368C133.605 1.256 133.749 1.2 133.909 1.2H136.789C136.965 1.2 137.109 1.256 137.221 1.368C137.333 1.48 137.389 1.624 137.389 1.8V17.376C137.389 17.552 137.333 17.704 137.221 17.832C137.109 17.944 136.965 18 136.789 18H134.221C133.869 18 133.605 17.848 133.429 17.544L127.573 8.664V17.4C127.573 17.56 127.517 17.704 127.405 17.832C127.293 17.944 127.149 18 126.973 18H124.093ZM141.343 18C141.183 18 141.039 17.944 140.911 17.832C140.799 17.704 140.743 17.56 140.743 17.4V1.8C140.743 1.624 140.799 1.48 140.911 1.368C141.039 1.256 141.183 1.2 141.343 1.2H144.511C144.687 1.2 144.831 1.256 144.943 1.368C145.055 1.48 145.111 1.624 145.111 1.8V14.376H152.383C152.559 14.376 152.703 14.44 152.815 14.568C152.927 14.68 152.983 14.824 152.983 15V17.4C152.983 17.56 152.927 17.704 152.815 17.832C152.703 17.944 152.559 18 152.383 18H141.343ZM155.663 18C155.503 18 155.359 17.944 155.231 17.832C155.119 17.704 155.063 17.56 155.063 17.4V1.8C155.063 1.624 155.119 1.48 155.231 1.368C155.359 1.256 155.503 1.2 155.663 1.2H158.879C159.055 1.2 159.199 1.256 159.311 1.368C159.439 1.48 159.503 1.624 159.503 1.8V17.4C159.503 17.576 159.439 17.72 159.311 17.832C159.199 17.944 159.055 18 158.879 18H155.663ZM163.444 18C163.284 18 163.14 17.944 163.012 17.832C162.9 17.704 162.844 17.56 162.844 17.4V1.8C162.844 1.624 162.9 1.48 163.012 1.368C163.14 1.256 163.284 1.2 163.444 1.2H166.468C166.644 1.2 166.788 1.256 166.9 1.368C167.012 1.48 167.068 1.624 167.068 1.8V7.128L171.508 1.656C171.7 1.352 172.012 1.2 172.444 1.2H175.9C176.044 1.2 176.164 1.256 176.26 1.368C176.356 1.464 176.404 1.576 176.404 1.704C176.404 1.816 176.38 1.912 176.332 1.992L170.572 9.24L176.764 17.208C176.828 17.272 176.86 17.368 176.86 17.496C176.86 17.624 176.812 17.744 176.716 17.856C176.62 17.952 176.5 18 176.356 18H172.78C172.396 18 172.076 17.84 171.82 17.52L167.068 11.592V17.4C167.068 17.576 167.012 17.72 166.9 17.832C166.788 17.944 166.644 18 166.468 18H163.444ZM179.358 18C179.198 18 179.054 17.944 178.926 17.832C178.814 17.704 178.758 17.56 178.758 17.4V1.8C178.758 1.624 178.814 1.48 178.926 1.368C179.054 1.256 179.198 1.2 179.358 1.2H182.526C182.702 1.2 182.846 1.256 182.958 1.368C183.07 1.48 183.126 1.624 183.126 1.8V14.376H190.398C190.574 14.376 190.718 14.44 190.83 14.568C190.942 14.68 190.998 14.824 190.998 15V17.4C190.998 17.56 190.942 17.704 190.83 17.832C190.718 17.944 190.574 18 190.398 18H179.358ZM192.118 18C191.99 18 191.87 17.952 191.758 17.856C191.662 17.744 191.614 17.624 191.614 17.496C191.614 17.4 191.622 17.328 191.638 17.28L197.278 1.872C197.326 1.68 197.43 1.52 197.59 1.392C197.75 1.264 197.958 1.2 198.214 1.2H201.766C202.022 1.2 202.23 1.264 202.39 1.392C202.55 1.52 202.654 1.68 202.702 1.872L208.318 17.28L208.366 17.496C208.366 17.624 208.31 17.744 208.198 17.856C208.102 17.952 207.982 18 207.838 18H204.886C204.502 18 204.246 17.832 204.118 17.496L203.182 15.048H196.774L195.862 17.496C195.734 17.832 195.47 18 195.07 18H192.118ZM202.222 11.592L199.99 5.256L197.758 11.592H202.222ZM210.858 18C210.698 18 210.554 17.944 210.426 17.832C210.314 17.704 210.258 17.56 210.258 17.4V1.8C210.258 1.624 210.314 1.48 210.426 1.368C210.554 1.256 210.698 1.2 210.858 1.2H217.386C219.482 1.2 221.114 1.68 222.282 2.64C223.466 3.584 224.058 4.928 224.058 6.672C224.058 7.792 223.794 8.744 223.266 9.528C222.738 10.312 222.01 10.912 221.082 11.328L224.37 17.232C224.418 17.328 224.442 17.416 224.442 17.496C224.442 17.624 224.386 17.744 224.274 17.856C224.178 17.952 224.066 18 223.938 18H220.746C220.282 18 219.954 17.784 219.762 17.352L217.026 12.072H214.578V17.4C214.578 17.576 214.514 17.72 214.386 17.832C214.274 17.944 214.13 18 213.954 18H210.858ZM217.338 8.664C218.074 8.664 218.634 8.488 219.018 8.136C219.402 7.768 219.594 7.264 219.594 6.624C219.594 5.984 219.402 5.48 219.018 5.112C218.65 4.728 218.09 4.536 217.338 4.536H214.578V8.664H217.338ZM231.889 18C231.713 18 231.561 17.944 231.433 17.832C231.321 17.72 231.265 17.576 231.265 17.4V15.696C231.265 15.216 231.465 14.824 231.865 14.52L234.361 12.072C235.817 10.952 236.921 10.08 237.673 9.456C238.425 8.832 238.993 8.264 239.377 7.752C239.761 7.24 239.953 6.752 239.953 6.288C239.953 5.024 239.329 4.392 238.081 4.392C237.425 4.392 236.921 4.592 236.569 4.992C236.217 5.376 235.985 5.864 235.873 6.456C235.777 6.824 235.505 7.008 235.057 7.008H232.057C231.913 7.008 231.793 6.96 231.697 6.864C231.601 6.768 231.553 6.648 231.553 6.504C231.585 5.48 231.865 4.544 232.393 3.696C232.937 2.832 233.697 2.152 234.673 1.656C235.665 1.144 236.801 0.887999 238.081 0.887999C239.425 0.887999 240.577 1.104 241.537 1.536C242.497 1.968 243.225 2.576 243.721 3.36C244.217 4.144 244.465 5.056 244.465 6.096C244.465 7.216 244.113 8.24 243.409 9.168C242.721 10.08 241.665 11.072 240.241 12.144L238.033 14.376H244.201C244.377 14.376 244.521 14.432 244.633 14.544C244.761 14.656 244.825 14.8 244.825 14.976V17.4C244.825 17.576 244.761 17.72 244.633 17.832C244.521 17.944 244.377 18 244.201 18H231.889ZM255.109 18C254.949 18 254.805 17.944 254.677 17.832C254.565 17.704 254.509 17.56 254.509 17.4V14.688H247.045C246.869 14.688 246.725 14.632 246.613 14.52C246.501 14.408 246.445 14.264 246.445 14.088V11.808C246.445 11.568 246.533 11.32 246.709 11.064L253.693 1.608C253.917 1.336 254.213 1.2 254.581 1.2H258.085C258.261 1.2 258.405 1.256 258.517 1.368C258.629 1.48 258.685 1.624 258.685 1.8V11.112H260.797C260.989 11.112 261.141 11.176 261.253 11.304C261.365 11.416 261.421 11.552 261.421 11.712V14.088C261.421 14.264 261.365 14.408 261.253 14.52C261.141 14.632 260.997 14.688 260.821 14.688H258.685V17.4C258.685 17.56 258.629 17.704 258.517 17.832C258.405 17.944 258.261 18 258.085 18H255.109ZM254.605 11.28V5.616L250.573 11.28H254.605Z" fill="#7296EE"/>
</svg>

<svg xmlns="http://www.w3.org/2000/svg" width="262" height="19" fill="none"><path fill="#7296EE" d="M1.28 18a.639.639 0 0 1-.432-.168.639.639 0 0 1-.168-.432V1.8c0-.176.056-.32.168-.432A.639.639 0 0 1 1.28 1.2h2.544c.4 0 .672.152.816.456l5.856 9.216V1.8c0-.176.056-.32.168-.432a.639.639 0 0 1 .432-.168h2.88c.176 0 .32.056.432.168a.585.585 0 0 1 .168.432v15.576a.67.67 0 0 1-.168.456.585.585 0 0 1-.432.168h-2.568a.858.858 0 0 1-.792-.456L4.76 8.664V17.4c0 .16-.056.304-.168.432A.585.585 0 0 1 4.16 18H1.28Zm15.69 0a.544.544 0 0 1-.36-.144.544.544 0 0 1-.144-.36c0-.096.008-.168.024-.216l5.64-15.408a.872.872 0 0 1 .312-.48c.16-.128.368-.192.624-.192h3.552c.256 0 .464.064.624.192.16.128.264.288.312.48L33.17 17.28l.048.216a.505.505 0 0 1-.168.36.488.488 0 0 1-.36.144h-2.952c-.384 0-.64-.168-.768-.504l-.936-2.448h-6.408l-.912 2.448c-.128.336-.392.504-.792.504H16.97Zm10.104-6.408-2.232-6.336-2.232 6.336h4.464ZM35.71 18a.639.639 0 0 1-.432-.168.639.639 0 0 1-.168-.432V1.8c0-.176.056-.32.168-.432a.639.639 0 0 1 .432-.168h2.592c.384 0 .664.176.84.528l4.224 7.56 4.224-7.56c.176-.352.456-.528.84-.528h2.568c.176 0 .32.056.432.168a.548.548 0 0 1 .192.432v15.6c0 .176-.064.32-.192.432a.585.585 0 0 1-.432.168h-2.856a.67.67 0 0 1-.456-.168.585.585 0 0 1-.168-.432v-9l-2.688 5.016c-.208.368-.488.552-.84.552h-1.248c-.208 0-.376-.048-.504-.144a1.242 1.242 0 0 1-.336-.408L39.19 8.4v9c0 .16-.056.304-.168.432a.585.585 0 0 1-.432.168h-2.88Zm18.315 0a.544.544 0 0 1-.36-.144.544.544 0 0 1-.144-.36c0-.096.008-.168.024-.216l5.64-15.408a.872.872 0 0 1 .312-.48c.16-.128.368-.192.624-.192h3.552c.256 0 .464.064.624.192.16.128.264.288.312.48l5.616 15.408.048.216a.505.505 0 0 1-.168.36.488.488 0 0 1-.36.144h-2.952c-.384 0-.64-.168-.768-.504l-.936-2.448H58.68l-.912 2.448c-.128.336-.392.504-.792.504h-2.952Zm10.104-6.408-2.232-6.336-2.232 6.336h4.464ZM72.764 18a.639.639 0 0 1-.432-.168.639.639 0 0 1-.168-.432V1.8c0-.176.056-.32.168-.432a.639.639 0 0 1 .432-.168h2.544c.4 0 .672.152.816.456l5.856 9.216V1.8c0-.176.056-.32.168-.432a.639.639 0 0 1 .432-.168h2.88c.176 0 .32.056.432.168a.585.585 0 0 1 .168.432v15.576a.67.67 0 0 1-.168.456.585.585 0 0 1-.432.168h-2.568a.858.858 0 0 1-.792-.456l-5.856-8.88V17.4c0 .16-.056.304-.168.432a.585.585 0 0 1-.432.168h-2.88Zm23.586.24c-2.304 0-4.104-.56-5.4-1.68-1.296-1.136-1.984-2.744-2.064-4.824-.016-.464-.024-1.2-.024-2.208 0-1.008.008-1.744.024-2.208.08-2.032.776-3.6 2.088-4.704C92.302 1.512 94.094.96 96.35.96c1.52 0 2.84.248 3.96.744 1.136.496 2 1.128 2.592 1.896.608.768.928 1.56.96 2.376a.455.455 0 0 1-.168.36.488.488 0 0 1-.36.144H99.83a.865.865 0 0 1-.384-.072.559.559 0 0 1-.24-.264 3.058 3.058 0 0 0-.984-1.2c-.448-.352-1.072-.528-1.872-.528-1.904 0-2.904 1.008-3 3.024a64.86 64.86 0 0 0-.024 2.088c0 .928.008 1.624.024 2.088.096 2.112 1.12 3.168 3.072 3.168.944 0 1.696-.24 2.256-.72.576-.496.864-1.248.864-2.256v-.456h-2.256a.585.585 0 0 1-.432-.168.67.67 0 0 1-.168-.456V8.952c0-.176.056-.32.168-.432a.548.548 0 0 1 .432-.192h6.048c.176 0 .32.064.432.192a.585.585 0 0 1 .168.432v2.736c0 1.36-.312 2.536-.936 3.528-.624.976-1.512 1.728-2.664 2.256-1.136.512-2.464.768-3.984.768Zm9.003-.24a.544.544 0 0 1-.36-.144.544.544 0 0 1-.144-.36c0-.096.008-.168.024-.216l5.64-15.408a.872.872 0 0 1 .312-.48c.16-.128.368-.192.624-.192h3.552c.256 0 .464.064.624.192.16.128.264.288.312.48l5.616 15.408.048.216a.505.505 0 0 1-.168.36.488.488 0 0 1-.36.144h-2.952c-.384 0-.64-.168-.768-.504l-.936-2.448h-6.408l-.912 2.448c-.128.336-.392.504-.792.504h-2.952Zm10.104-6.408-2.232-6.336-2.232 6.336h4.464ZM124.093 18a.639.639 0 0 1-.432-.168.639.639 0 0 1-.168-.432V1.8c0-.176.056-.32.168-.432a.639.639 0 0 1 .432-.168h2.544c.4 0 .672.152.816.456l5.856 9.216V1.8c0-.176.056-.32.168-.432a.639.639 0 0 1 .432-.168h2.88c.176 0 .32.056.432.168a.585.585 0 0 1 .168.432v15.576a.67.67 0 0 1-.168.456.585.585 0 0 1-.432.168h-2.568a.858.858 0 0 1-.792-.456l-5.856-8.88V17.4c0 .16-.056.304-.168.432a.585.585 0 0 1-.432.168h-2.88Zm17.25 0a.639.639 0 0 1-.432-.168.639.639 0 0 1-.168-.432V1.8c0-.176.056-.32.168-.432a.639.639 0 0 1 .432-.168h3.168c.176 0 .32.056.432.168a.585.585 0 0 1 .168.432v12.576h7.272c.176 0 .32.064.432.192a.585.585 0 0 1 .168.432v2.4c0 .16-.056.304-.168.432a.585.585 0 0 1-.432.168h-11.04Zm14.32 0a.639.639 0 0 1-.432-.168.639.639 0 0 1-.168-.432V1.8c0-.176.056-.32.168-.432a.639.639 0 0 1 .432-.168h3.216c.176 0 .32.056.432.168a.548.548 0 0 1 .192.432v15.6c0 .176-.064.32-.192.432a.585.585 0 0 1-.432.168h-3.216Zm7.781 0a.639.639 0 0 1-.432-.168.639.639 0 0 1-.168-.432V1.8c0-.176.056-.32.168-.432a.639.639 0 0 1 .432-.168h3.024c.176 0 .32.056.432.168a.585.585 0 0 1 .168.432v5.328l4.44-5.472c.192-.304.504-.456.936-.456h3.456c.144 0 .264.056.36.168a.46.46 0 0 1 .144.336.55.55 0 0 1-.072.288l-5.76 7.248 6.192 7.968c.064.064.096.16.096.288a.544.544 0 0 1-.144.36.488.488 0 0 1-.36.144h-3.576c-.384 0-.704-.16-.96-.48l-4.752-5.928V17.4c0 .176-.056.32-.168.432a.585.585 0 0 1-.432.168h-3.024Zm15.914 0a.639.639 0 0 1-.432-.168.639.639 0 0 1-.168-.432V1.8c0-.176.056-.32.168-.432a.639.639 0 0 1 .432-.168h3.168c.176 0 .32.056.432.168a.585.585 0 0 1 .168.432v12.576h7.272c.176 0 .32.064.432.192a.585.585 0 0 1 .168.432v2.4c0 .16-.056.304-.168.432a.585.585 0 0 1-.432.168h-11.04Zm12.76 0a.544.544 0 0 1-.36-.144.544.544 0 0 1-.144-.36c0-.096.008-.168.024-.216l5.64-15.408a.872.872 0 0 1 .312-.48c.16-.128.368-.192.624-.192h3.552c.256 0 .464.064.624.192.16.128.264.288.312.48l5.616 15.408.048.216a.505.505 0 0 1-.168.36.488.488 0 0 1-.36.144h-2.952c-.384 0-.64-.168-.768-.504l-.936-2.448h-6.408l-.912 2.448c-.128.336-.392.504-.792.504h-2.952Zm10.104-6.408-2.232-6.336-2.232 6.336h4.464ZM210.858 18a.639.639 0 0 1-.432-.168.639.639 0 0 1-.168-.432V1.8c0-.176.056-.32.168-.432a.639.639 0 0 1 .432-.168h6.528c2.096 0 3.728.48 4.896 1.44 1.184.944 1.776 2.288 1.776 4.032 0 1.12-.264 2.072-.792 2.856-.528.784-1.256 1.384-2.184 1.8l3.288 5.904a.597.597 0 0 1 .072.264.505.505 0 0 1-.168.36.46.46 0 0 1-.336.144h-3.192c-.464 0-.792-.216-.984-.648l-2.736-5.28h-2.448V17.4c0 .176-.064.32-.192.432a.585.585 0 0 1-.432.168h-3.096Zm6.48-9.336c.736 0 1.296-.176 1.68-.528.384-.368.576-.872.576-1.512s-.192-1.144-.576-1.512c-.368-.384-.928-.576-1.68-.576h-2.76v4.128h2.76ZM231.889 18a.67.67 0 0 1-.456-.168.585.585 0 0 1-.168-.432v-1.704c0-.48.2-.872.6-1.176l2.496-2.448c1.456-1.12 2.56-1.992 3.312-2.616.752-.624 1.32-1.192 1.704-1.704.384-.512.576-1 .576-1.464 0-1.264-.624-1.896-1.872-1.896-.656 0-1.16.2-1.512.6-.352.384-.584.872-.696 1.464-.096.368-.368.552-.816.552h-3a.488.488 0 0 1-.504-.504 5.546 5.546 0 0 1 .84-2.808c.544-.864 1.304-1.544 2.28-2.04.992-.512 2.128-.768 3.408-.768 1.344 0 2.496.216 3.456.648.96.432 1.688 1.04 2.184 1.824.496.784.744 1.696.744 2.736 0 1.12-.352 2.144-1.056 3.072-.688.912-1.744 1.904-3.168 2.976l-2.208 2.232h6.168c.176 0 .32.056.432.168a.548.548 0 0 1 .192.432V17.4c0 .176-.064.32-.192.432a.585.585 0 0 1-.432.168h-12.312Zm23.22 0a.639.639 0 0 1-.432-.168.639.639 0 0 1-.168-.432v-2.712h-7.464a.585.585 0 0 1-.432-.168.585.585 0 0 1-.168-.432v-2.28c0-.24.088-.488.264-.744l6.984-9.456c.224-.272.52-.408.888-.408h3.504c.176 0 .32.056.432.168a.585.585 0 0 1 .168.432v9.312h2.112c.192 0 .344.064.456.192a.555.555 0 0 1 .168.408v2.376c0 .176-.056.32-.168.432a.585.585 0 0 1-.432.168h-2.136V17.4c0 .16-.056.304-.168.432a.585.585 0 0 1-.432.168h-2.976Zm-.504-6.72V5.616l-4.032 5.664h4.032Z"/></svg>
